icons/black/cdapl.svg

<?xml version="1.0" encoding="UTF-8"?><svg id="a" xmlns="http://www.w3.org/2000/svg" viewBox="0 0 48 48"><defs><style>.b{fill:none;stroke:#000;stroke-linecap:round;stroke-linejoin:round;}</style></defs><path class="b" d="M38.5001,5.5H9.5001c-2.2091,0-4,1.7909-4,4v29c0,2.2091,1.7909,4,4,4h29c2.2091,0,4-1.7909,4-4V9.5c0-2.2091-1.7909-4-4-4Z"/><path class="b" d="M15.4515,21.0138h-5.9515v9.4093h8.2535"/><path class="b" d="M28.2531,17.577v12.8461h-7.1868v-9.4658h7.1306"/><path class="b" d="M33.0538,20.845h5.4462v9.578h-6.7937v-4.8173h6.7376"/></svg>

<svg xmlns="http://www.w3.org/2000/svg" viewBox="0 0 48 48"><defs><style>.a{fill:none;stroke:#000;stroke-linecap:round;stroke-linejoin:round;}</style></defs><path class="a" d="M40.5,5.5H7.5a2,2,0,0,0-2,2v33a2,2,0,0,0,2,2h33a2,2,0,0,0,2-2V7.5A2,2,0,0,0,40.5,5.5Z"/><path class="a" d="M15.4515,21.0138H9.5V30.423h8.2535"/><path class="a" d="M28.2531,17.577V30.423H21.0663V20.9572h7.1306"/><path class="a" d="M33.0538,20.845H38.5v9.578H31.7063V25.6058h6.7376"/></svg>
